logos/origin.svg

<?xml version="1.0" encoding="UTF-8"?>
<svg width="256px" height="344px" viewBox="0 0 256 344" version="1.1" xmlns="http://www.w3.org/2000/svg" xmlns:xlink="http://www.w3.org/1999/xlink" preserveAspectRatio="xMidYMid">
    <defs>
        <linearGradient x1="50%" y1="0%" x2="50%" y2="100%" id="linearGradient-1">
            <stop stop-color="#FF9900" offset="0%"></stop>
            <stop stop-color="#F05A22" offset="100%"></stop>
        </linearGradient>
    </defs>
    <g>
        <path d="M127.615795,2.37396105 C128.316104,4.17579665 127.105155,5.82443974 126.113051,7.21776199 C119.08808,17.1752744 113.565286,28.3102833 111.362232,40.2811829 C110.500866,42.7381045 110.691102,44.5685497 111.362232,44.7728064 C124.996364,43.576446 140.374543,43.7140513 153.797123,46.5809395 C178.220385,51.4976892 201.046067,63.8552175 218.590256,81.5234192 C236.083381,99.0092488 248.360665,121.667149 253.328479,145.908039 C258.836114,172.15502 255.757675,200.094414 244.742404,224.53956 C221.384195,274.45843 182.006429,316.681201 133.82374,343.446118 C132.269931,344.168312 130.030402,344.197492 128.96535,342.650977 C127.710629,341.031513 128.228565,338.726331 129.468695,337.252765 C135.968434,328.185227 140.50585,317.760843 142.97152,306.891471 C143.445688,304.637352 144.094932,302.354055 143.89797,300.034283 C143.102829,298.99841 141.78975,299.31209 140.673633,299.348564 C117.286244,301.690221 93.2204323,297.510254 72.0871623,287.180702 C49.4511468,276.274855 30.2437253,258.446166 17.5433376,236.773075 C5.77669476,216.836165 -0.409364314,193.616559 0.0210336979,170.455313 C0.101277286,149.198029 5.90070774,128.115824 16.113541,109.506582 C39.8875579,63.8625124 77.2154636,25.3455411 122.283238,0.462702249 C124.172612,-0.587760605 126.966551,0.192791655 127.615795,2.37396105 L127.615795,2.37396105 Z M120.970159,122.440406 C107.058821,124.307896 94.2271262,132.478162 86.4361931,144.120792 C81.1619942,152.115982 77.9668364,161.613917 78.0324904,171.22857 C77.6385667,184.11133 82.7741629,197.015974 91.6739175,206.295063 C99.4502601,214.669586 110.253979,220.126157 121.582929,221.585133 C133.116136,223.109763 145.159985,220.410657 154.92783,214.071405 C164.856163,207.768628 172.420955,197.818411 175.80578,186.547821 C182.15962,166.982949 174.543765,144.062434 157.969796,131.974816 C147.560001,124.052575 133.911279,120.536442 120.970159,122.440406 L120.970159,122.440406 L120.970159,122.440406 Z" fill="url(#linearGradient-1)"></path>
    </g>
</svg>

<svg preserveAspectRatio="xMidYMid" viewBox="0 0 256 344" xmlns="http://www.w3.org/2000/svg">
  <defs>
    <linearGradient id="origin_svg__a" x1="50%" x2="50%" y1="0%" y2="100%">
      <stop offset="0%" stop-color="#F90"/>
      <stop offset="100%" stop-color="#F05A22"/>
    </linearGradient>
  </defs>
  <path fill="url(#origin_svg__a)" d="M127.616 2.374c.7 1.802-.51 3.45-1.503 4.844-7.025 9.957-12.548 21.092-14.75 33.063-.862 2.457-.672 4.288 0 4.492 13.633-1.197 29.012-1.059 42.434 1.808 24.423 4.917 47.25 17.274 64.793 34.942 17.493 17.486 29.77 40.144 34.738 64.385 5.508 26.247 2.43 54.186-8.586 78.632-23.358 49.918-62.736 92.141-110.918 118.906-1.554.722-3.794.751-4.859-.795-1.254-1.62-.736-3.925.504-5.398 6.5-9.068 11.037-19.492 13.503-30.362.474-2.254 1.123-4.537.926-6.857-.795-1.036-2.108-.722-3.224-.685-23.388 2.341-47.454-1.839-68.587-12.168-22.636-10.906-41.843-28.735-54.544-50.408C5.777 216.836-.409 193.617.021 170.455c.08-21.257 5.88-42.34 16.093-60.948C39.888 63.863 77.215 25.346 122.284.463c1.889-1.05 4.683-.27 5.332 1.911ZM120.97 122.44c-13.911 1.868-26.743 10.038-34.534 21.68-5.274 7.996-8.47 17.494-8.404 27.109-.393 12.882 4.742 25.787 13.642 35.066 7.776 8.375 18.58 13.831 29.909 15.29 11.533 1.525 23.577-1.174 33.345-7.514 9.928-6.302 17.493-16.253 20.878-27.523 6.354-19.565-1.262-42.486-17.836-54.573-10.41-7.922-24.059-11.439-37-9.535Z"/>
</svg>
